X: 3162
T: Because He Was A Bonny Lad
R: polka
M: 2/4
K: Amajor
|:d|c>BA>a (3fga e>c|d*fe>c B2B>d|c>BA>a (3fga e>c|d*fe>c A2A:|
d|c>BA>c d>ef*d|c*Ae>c B2B>d|c>BA>c d>ef>g|a/g/f/e/ a>c A2A>d|
c>Ae>A f>Ae>A|c*Ae>c B2B>g|a>fg>e f>de>c|d*fe>c A2A||

